X:388
T:Thompson's
R:jig
S:Kevin Ryan and Marco Pollier
Z:hn-jig-388
M:6/8
L:1/8
K:G
GED GBd | gba g2d | ege dBG | AGA B2A |
GED GBd | gba g2d | ege dBd | eaf g3 :|
|: gba ged | ege dBd | gba ged | eag ~a3 |
gba ged | ege dBA | ~B3 dBA | GBA G3 :|
